symbols/web/margin/materialsymbolsoutlined/margin_fill1_48px.svg

<svg xmlns="http://www.w3.org/2000/svg" height="48" width="48"><path d="M6 42V6h36v36Zm9.7-24.35q.85 0 1.4-.55.55-.55.55-1.4 0-.85-.55-1.4-.55-.55-1.4-.55-.85 0-1.4.55-.55.55-.55 1.4 0 .85.55 1.4.55.55 1.4.55Zm8.3 0q.85 0 1.425-.55.575-.55.575-1.4 0-.85-.575-1.4-.575-.55-1.425-.55-.8 0-1.35.575T22.1 15.7q0 .8.55 1.375t1.35.575Zm8.35 0q.85 0 1.4-.55.55-.55.55-1.4 0-.85-.55-1.4-.55-.55-1.4-.55-.85 0-1.4.55-.55.55-.55 1.4 0 .85.55 1.4.55.55 1.4.55Zm0 8.3q.85 0 1.4-.55.55-.55.55-1.4 0-.85-.55-1.4-.55-.55-1.4-.55-.85 0-1.4.55-.55.55-.55 1.4 0 .85.55 1.4.55.55 1.4.55Zm-8.35 0q.85 0 1.425-.55Q26 24.85 26 24q0-.85-.575-1.4-.575-.55-1.425-.55-.8 0-1.35.575T22.1 24q0 .8.55 1.375t1.35.575Zm-8.3 0q.85 0 1.4-.55.55-.55.55-1.4 0-.85-.55-1.4-.55-.55-1.4-.55-.85 0-1.4.55-.55.55-.55 1.4 0 .85.55 1.4.55.55 1.4.55Z"/></svg>

<svg xmlns="http://www.w3.org/2000/svg" height="48" width="48"><path d="M6 42V6H42V42ZM15.7 17.65Q16.55 17.65 17.1 17.1Q17.65 16.55 17.65 15.7Q17.65 14.85 17.1 14.3Q16.55 13.75 15.7 13.75Q14.85 13.75 14.3 14.3Q13.75 14.85 13.75 15.7Q13.75 16.55 14.3 17.1Q14.85 17.65 15.7 17.65ZM24 17.65Q24.85 17.65 25.425 17.1Q26 16.55 26 15.7Q26 14.85 25.425 14.3Q24.85 13.75 24 13.75Q23.2 13.75 22.65 14.325Q22.1 14.9 22.1 15.7Q22.1 16.5 22.65 17.075Q23.2 17.65 24 17.65ZM32.35 17.65Q33.2 17.65 33.75 17.1Q34.3 16.55 34.3 15.7Q34.3 14.85 33.75 14.3Q33.2 13.75 32.35 13.75Q31.5 13.75 30.95 14.3Q30.4 14.85 30.4 15.7Q30.4 16.55 30.95 17.1Q31.5 17.65 32.35 17.65ZM32.35 25.95Q33.2 25.95 33.75 25.4Q34.3 24.85 34.3 24Q34.3 23.15 33.75 22.6Q33.2 22.05 32.35 22.05Q31.5 22.05 30.95 22.6Q30.4 23.15 30.4 24Q30.4 24.85 30.95 25.4Q31.5 25.95 32.35 25.95ZM24 25.95Q24.85 25.95 25.425 25.4Q26 24.85 26 24Q26 23.15 25.425 22.6Q24.85 22.05 24 22.05Q23.2 22.05 22.65 22.625Q22.1 23.2 22.1 24Q22.1 24.8 22.65 25.375Q23.2 25.95 24 25.95ZM15.7 25.95Q16.55 25.95 17.1 25.4Q17.65 24.85 17.65 24Q17.65 23.15 17.1 22.6Q16.55 22.05 15.7 22.05Q14.85 22.05 14.3 22.6Q13.75 23.15 13.75 24Q13.75 24.85 14.3 25.4Q14.85 25.95 15.7 25.95Z"/></svg>
